64x64/apps/skrooge.svg

<svg height="64" width="64" xmlns="http://www.w3.org/2000/svg"><path d="m6.05 32c-.012.334-.05.662-.05 1 0 14.404 11.596 26 26 26s26-11.596 26-26c0-.338-.039-.665-.051-1-.528 13.932-11.884 25-25.95 25s-25.422-11.068-25.95-25z" opacity=".2"/><rect fill="#ffc947" height="50" rx="25" transform="matrix(0 -1 -1 0 0 0)" width="50" x="-57" y="-57"/><path d="m32 16a16 16 0 0 0 -14.825 10h-3.175l-2 4h4.144a16 16 0 0 0 -.144 2l-2 4h2.53a16 16 0 0 0 15.47 12 16 16 0 0 0 12.488-6h-5.866a12 12 0 0 1 -6.622 2 12 12 0 0 1 -11.3-8h13.3l2-4h-16a12 12 0 0 1 .18-2h15.82l2-4h-16.378a12 12 0 0 1 10.378-6 12 12 0 0 1 6.618 2h5.854a16 16 0 0 0 -12.472-6z" fill="#b38d32"/><path d="m32 6c-14.404 0-26 11.596-26 26s11.596 26 26 26 26-11.596 26-26-11.596-26-26-26zm0 4c12.258 0 22 9.743 22 22 0 12.258-9.742 22-22 22s-22-9.742-22-22c0-12.257 9.742-22 22-22z" fill="#b38d32"/><path d="m32 6c-14.404 0-26 11.596-26 26 0 .11.012.219.018.328.355-14.09 11.802-25.328 25.982-25.328 14.181 0 25.633 11.242 25.984 25.336.007-.112.016-.222.016-.336 0-14.404-11.596-26-26-26z" fill="#f4f4f7" opacity=".2"/></svg>

<svg xmlns="http://www.w3.org/2000/svg" width="64" height="64" version="1"><path style="opacity:.2" d="M6.05 32c-.012.334-.05.662-.05 1 0 14.404 11.596 26 26 26s26-11.596 26-26c0-.338-.039-.665-.051-1-.528 13.932-11.884 25-25.95 25-14.066 0-25.422-11.068-25.95-25z"/><rect style="fill:#ffc947" width="50" height="50" x="-57" y="-57" rx="25" ry="25" transform="matrix(0 -1 -1 0 0 0)"/><path style="fill:#b38d32" d="M32 16a16 16 0 0 0-14.825 10H14l-2 4h4.144A16 16 0 0 0 16 32l-2 4h2.53A16 16 0 0 0 32 48a16 16 0 0 0 12.488-6h-5.866A12 12 0 0 1 32 44a12 12 0 0 1-11.3-8H34l2-4H20a12 12 0 0 1 .18-2H36l2-4H21.622A12 12 0 0 1 32 20a12 12 0 0 1 6.618 2h5.854A16 16 0 0 0 32 16z"/><path style="fill:#b38d32" d="M32 6C17.596 6 6 17.596 6 32s11.596 26 26 26 26-11.596 26-26S46.404 6 32 6zm0 4c12.258 0 22 9.743 22 22 0 12.258-9.742 22-22 22s-22-9.742-22-22c0-12.257 9.742-22 22-22z"/><path style="opacity:.2;fill:#f4f4f7" d="M32 6C17.596 6 6 17.596 6 32c0 .11.012.219.018.328C6.373 18.238 17.82 7 32 7c14.181 0 25.633 11.242 25.984 25.336.007-.112.016-.222.016-.336C58 17.596 46.404 6 32 6z"/></svg>
